app/assets/icons/polaris/ShopcodesMajor.svg

<svg viewBox="0 0 20 20" xmlns="http://www.w3.org/2000/svg"><path d="M2.5 1a1.5 1.5 0 0 0-1.5 1.5v4.5h6v-6h-4.5zm4.5 12h-6v4.5a1.5 1.5 0 0 0 1.5 1.5h4.5v-6zm6-12h4.5a1.5 1.5 0 0 1 1.5 1.5v4.5h-6v-6zm-12 8v2h2v-2h-2zm8-4h2v2h-2v-2zm2-4h-2v2h2v-2zm0 16h1v2h-3v-3h2v1zm8 0h-2v2h.5a1.5 1.5 0 0 0 1.5-1.5v-.5zm-2-4h2v3h-2v-3zm-1 0h-2v6h2v-6zm-3-4h6v2h-6v-2zm-2 0h-6v2h4v3h2v-5zm2 4h1v3h-1z"/></svg>

<svg viewBox="0 0 20 20" xmlns="http://www.w3.org/2000/svg"><path d="M2.5 1A1.5 1.5 0 0 0 1 2.5V7h6V1H2.5zM7 13H1v4.5A1.5 1.5 0 0 0 2.5 19H7v-6zm6-12h4.5A1.5 1.5 0 0 1 19 2.5V7h-6V1zM1 9v2h2V9H1zm8-4h2v2H9V5zm2-4H9v2h2V1zm0 16h1v2H9v-3h2v1zm8 0h-2v2h.5a1.5 1.5 0 0 0 1.5-1.5V17zm-2-4h2v3h-2v-3zm-1 0h-2v6h2v-6zm-3-4h6v2h-6V9zm-2 0H5v2h4v3h2V9zm2 4h1v3h-1z"/></svg>
